X:1
T:Wheatley Processional
C:Traditional
M:4/4
L:1/4
Q:1/4=108
K:D
A | F#D A2 | AA G2 | Bd AB | A2 F2 | F#D A2 | AF D2 | Bd AB | d2 AA |
dA d2 | F#D BA/2G/2 | dA dF | A2 d2 | F#D A2 | dd fe | fd BA | d4 |]
